src/assets/icon/navbar_elements.svg

<svg width="24" height="24" viewBox="0 0 24 24" fill="none" xmlns="http://www.w3.org/2000/svg">
<mask id="mask0_253_4434" style="mask-type:alpha" maskUnits="userSpaceOnUse" x="0" y="0" width="24" height="24">
<rect width="24" height="24" fill="#D9D9D9"/>
</mask>
<g mask="url(#mask0_253_4434)">
<path d="M15.2212 13.7982L15.8902 11.383C15.9442 11.2022 15.9384 11.0197 15.8729 10.8357C15.8076 10.6519 15.6928 10.5029 15.5287 10.3887L13.4807 8.98499C13.3602 8.89132 13.2272 8.87207 13.0817 8.92724C12.9362 8.98241 12.8416 9.08691 12.7979 9.24074L12.1287 11.656C12.0748 11.8368 12.0807 12.0192 12.1462 12.2032C12.2115 12.3871 12.3262 12.5361 12.4904 12.6502L14.5384 14.054C14.6589 14.1477 14.7919 14.1669 14.9374 14.1117C15.0829 14.0566 15.1775 13.9521 15.2212 13.7982ZM4.30766 19.056L3.68466 18.7617C3.16149 18.5387 2.80824 18.1632 2.62491 17.635C2.44157 17.1067 2.46657 16.5874 2.69991 16.0772L4.30766 12.61V19.056ZM8.49991 20.8847C7.94991 20.8847 7.47907 20.6864 7.08741 20.2897C6.69574 19.8929 6.49991 19.4195 6.49991 18.8695V13.5195L8.94416 20.2347C8.99416 20.3579 9.03899 20.4721 9.07866 20.5772C9.11849 20.6822 9.18007 20.7847 9.26341 20.8847H8.49991ZM13.2557 20.3367C12.7838 20.5072 12.3185 20.4887 11.8597 20.281C11.4007 20.0733 11.0859 19.7336 10.9154 19.2617L6.67291 7.57524C6.50241 7.10341 6.52266 6.64057 6.73366 6.18674C6.94449 5.73291 7.28582 5.42074 7.75766 5.25024L14.7249 2.70224C15.1967 2.53174 15.6596 2.55191 16.1134 2.76274C16.5672 2.97374 16.8794 3.31507 17.0499 3.78674L21.3077 15.4732C21.4782 15.9451 21.4596 16.4079 21.2519 16.8617C21.0441 17.3156 20.7043 17.6277 20.2327 17.7982L13.2557 20.3367ZM12.7384 18.9137L19.7114 16.3752C19.7947 16.3432 19.8541 16.2903 19.8894 16.2165C19.9246 16.1428 19.9262 16.0643 19.8942 15.981L15.6404 4.30799C15.6082 4.22466 15.5553 4.16532 15.4817 4.12999C15.408 4.09482 15.3295 4.09324 15.2462 4.12524L8.28841 6.66374C8.20507 6.69574 8.14574 6.74857 8.11041 6.82224C8.07524 6.89607 8.07366 6.97466 8.10566 7.05799L12.3442 18.731C12.3762 18.8143 12.4291 18.8737 12.5029 18.909C12.5766 18.9442 12.6551 18.9457 12.7384 18.9137Z" fill="#CCCCCC"/>
</g>
</svg>

<svg xmlns="http://www.w3.org/2000/svg" width="24" height="24" fill="none" xmlns:v="https://vecta.io/nano"><mask id="A" maskUnits="userSpaceOnUse" x="0" y="0" width="24" height="24" mask-type="alpha"><path fill="#d9d9d9" d="M0 0h24v24H0z"/></mask><g mask="url(#A)"><path d="M15.221 13.798l.669-2.415a.86.86 0 0 0-.017-.547.9.9 0 0 0-.344-.447l-2.048-1.404c-.12-.094-.254-.113-.399-.058s-.24.16-.284.314l-.669 2.415a.86.86 0 0 0 .018.547.9.9 0 0 0 .344.447l2.048 1.404c.12.094.254.113.399.058s.24-.16.284-.314zM4.308 19.056l-.623-.294a1.83 1.83 0 0 1-1.06-1.127 2.02 2.02 0 0 1 .075-1.558l1.608-3.467v6.446zM8.5 20.885c-.55 0-1.021-.198-1.412-.595a1.95 1.95 0 0 1-.588-1.42v-5.35l2.444 6.715.134.343a1.08 1.08 0 0 0 .185.307H8.5zm4.756-.548a1.79 1.79 0 0 1-1.396-.056c-.459-.208-.774-.547-.944-1.019L6.673 7.575c-.17-.472-.15-.935.061-1.388s.552-.766 1.024-.937l6.967-2.548c.472-.171.935-.15 1.388.06a1.74 1.74 0 0 1 .937 1.024l4.258 11.686a1.77 1.77 0 0 1-.056 1.388 1.72 1.72 0 0 1-1.019.937l-6.977 2.538zm-.517-1.423l6.973-2.538c.083-.032.143-.085.178-.159s.037-.152.005-.236L15.64 4.308c-.032-.083-.085-.143-.159-.178s-.152-.037-.236-.005L8.288 6.664c-.083.032-.143.085-.178.159s-.037.152-.005.236l4.239 11.673c.032.083.085.143.159.178s.152.037.236.005z" fill="#ccc"/></g></svg>
